icons/finance-currency-bath-filled.svg

<svg viewBox="0 0 24 24"><path fill="currentColor" fill-rule="evenodd" d="M11 2.5a1.5 1.5 0 0 1 1.5 1.5v.5h.5a4.5 4.5 0 0 1 4.5 4.5v.1a4 4 0 0 1-1.1 3 5 5 0 0 1 1.1 2.9v.1a4.4 4.4 0 0 1-4.4 4.4h-.6v.5a1.5 1.5 0 0 1-3 0v-.5h-1.5a1.5 1.5 0 0 1-1.5-1.5v-12a1.5 1.5 0 0 1 1.5-1.5h1.5v-.5a1.5 1.5 0 0 1 1.5-1.5Zm-1.5 11v3h3.6a1.4 1.4 0 0 0 1.4-1.4v-.1a1.5 1.5 0 0 0-1.5-1.5zm0-3h3.6a1.4 1.4 0 0 0 1.4-1.4v-.1a1.5 1.5 0 0 0-1.5-1.5h-3.5z" clip-rule="evenodd"/></svg>

<svg viewBox="0 0 24 24"><path fill="currentColor" fill-rule="evenodd" d="M11 2.5A1.5 1.5 0 0 1 12.5 4v.5h.5A4.5 4.5 0 0 1 17.5 9v.1a4 4 0 0 1-1.1 3 5 5 0 0 1 1.1 2.9v.1a4.4 4.4 0 0 1-4.4 4.4h-.6v.5a1.5 1.5 0 0 1-3 0v-.5H8A1.5 1.5 0 0 1 6.5 18V6A1.5 1.5 0 0 1 8 4.5h1.5V4A1.5 1.5 0 0 1 11 2.5m-1.5 11v3h3.6a1.4 1.4 0 0 0 1.4-1.4V15a1.5 1.5 0 0 0-1.5-1.5zm0-3h3.6a1.4 1.4 0 0 0 1.4-1.4V9A1.5 1.5 0 0 0 13 7.5H9.5z" clip-rule="evenodd"/></svg>
